X: 2811
T: Bantry Lasses, The
R: reel
M: 4/4
K: Dmajor
|:~F3E DFAF|G2FG EFGE|~F3E D2Dd|cAGE EDDF|
A2FD DFAF|G2FG EFGE|~F3E D2Dd|cAGE EDD2:|
|:Addc dfed|cdef gfed|Addc d2ed|cAGE EDD2|
Addc dfed|(3Bcd ef ~g3e|~f3d efed|cAGE EDD2:|

